COLOR/mimes 16/16/audio-x-scpls.svg

<svg height="16" viewBox="0 0 4.233125 4.233125" width="16" xmlns="http://www.w3.org/2000/svg" xmlns:xlink="http://www.w3.org/1999/xlink"><linearGradient id="a"><stop offset="0" stop-color="#e72662"/><stop offset=".483" stop-color="#ec3c50"/><stop offset="1" stop-color="#ff7b66"/></linearGradient><linearGradient id="b" gradientUnits="userSpaceOnUse" x1="328" x2="328" y1="237" y2="251"><stop offset="0" stop-color="#fff"/><stop offset=".125" stop-color="#fff" stop-opacity=".098039"/><stop offset=".92500001" stop-color="#fff" stop-opacity=".098039"/><stop offset="1" stop-color="#fff" stop-opacity=".498039"/></linearGradient><clipPath id="c"><path d="m325.09646 237c-2.80769 0-3.10979.28839-3.09603 3.10176v3.89824 3.89824c-.0138 2.81337.28834 3.10176 3.09603 3.10176h5.8075c2.8077 0 3.09604-.28835 3.09604-3.10176v-3.89824-3.89824c0-2.8134-.28835-3.10176-3.09604-3.10176z"/></clipPath><linearGradient id="d" gradientTransform="matrix(0 -.00953618 .00953591 0 -.942985 4.47364)" gradientUnits="userSpaceOnUse" x1="459.03448" x2="35.310345" y1="419.23337" y2="207.36522"><stop offset="0" stop-color="#f2f2f2"/><stop offset="1" stop-color="#f9f9f9"/></linearGradient><linearGradient id="e" gradientTransform="matrix(0 -.08211623 -.08214872 0 296.39037 645.90388)" gradientUnits="userSpaceOnUse" x1="11.996" x2="62" xlink:href="#a" y1="32" y2="32"/><linearGradient id="f" gradientUnits="userSpaceOnUse" x1="-644.91583892738" x2="-644.20647500738" xlink:href="#a" y1="-289.19016315762" y2="-289.19016315762"/><linearGradient id="g" gradientTransform="matrix(.05916724 0 0 .08047766 268.48218 610.46404)" gradientUnits="userSpaceOnUse" x1="347.96701" x2="351.96701" xlink:href="#a" y1="385.36099" y2="385.36099"/><linearGradient id="h" gradientUnits="userSpaceOnUse" x1="-644.9184651484" x2="-644.2064795484" xlink:href="#a" y1="-290.3746872468" y2="-290.3746872468"/><linearGradient id="i" gradientTransform="matrix(.05982293 0 0 .08047767 268.48237 610.46666)" gradientUnits="userSpaceOnUse" x1="363.97501" x2="367.97501" xlink:href="#a" y1="385.36099" y2="385.36099"/><path d="m1.3483189.264567c-.1902367 0-.3444309.0037-.48573259.02739-.1413044.02373-.2826405.0731-.3906566.180857-.1080135.10776-.1578347.249551-.1813735.39117-.023547.141622-.026772.296446-.025849.487286v.765291 1.031411c-.0007938.190004.00238.344563.025849.485735.023547.14162.073357.283411.1813735.39117.1080161.107762.2493522.157139.3906566.180858.14130169.02373.29549589.02739.48573259.02739h1.5367831c.1902367 0 .3440949-.0036.4852167-.02739.1411245-.02376.2824765-.07353.3901381-.181374s.1571653-.249413.1808576-.390654c.023695-.141243.027388-.29513.027388-.485735v-1.031411-.766842c0-.190604-.0037-.344491-.027388-.485735-.023679-.141241-.073196-.28281-.1808579-.390654-.1076616-.107844-.2490136-.157625-.3901381-.181373-.1411218-.02375-.29498-.02739-.4852167-.02739z" opacity=".1"/><path d="m1.34852.264567c-.74283149 0-.82275819.0763-.81911769.820634v1.031359 1.031358c-.00365.744334.076286.820634.81911769.820634h1.5364921c.7428341 0 .8191203-.07629.8191203-.820634v-1.031358-1.031359c0-.744342-.076289-.820634-.8191203-.820634z" fill="none" opacity=".2" stroke="#000" stroke-width=".529141"/><path d="m1.34852.264567c-.74283149 0-.82275819.0763-.81911769.820634v1.031359 1.031358c-.00365.744334.076286.820634.81911769.820634h1.5364921c.7428341 0 .8191203-.07629.8191203-.820634v-1.031358-1.031359c0-.744342-.076289-.820634-.8191203-.820634z" fill="url(#d)"/><path d="m2.1167105.264567v3.703985h.7683915c.7428341 0 .8190304-.07624.8190304-.820581v-1.031411-1.031412c0-.744342-.076199-.820581-.8190304-.820581z" fill="#fff" opacity=".2"/><path d="m.52928861 2.11656v1.031411c-.00365.744334.076199.820581.81903029.820581h1.5367831c.7428341 0 .8190304-.07624.8190304-.820581v-1.031411z" fill="#fff" opacity=".2"/><path clip-path="url(#c)" d="m325.09646 237c-2.80769 0-3.10979.28839-3.09603 3.10176v3.89824 3.89824c-.0138 2.81337.28834 3.10176 3.09603 3.10176h5.8075c2.8077 0 3.09604-.28835 3.09604-3.10176v-3.89824-3.89824c0-2.8134-.28835-3.10176-3.09604-3.10176z" fill="none" opacity=".4" stroke="url(#b)" stroke-width="2" transform="matrix(.26457031 0 0 .26457031 -84.662352 -62.438597)"/><g enable-background="new" stroke-width=".082116" transform="matrix(0 -.36610113971 -.36624599 0 237.26016196866 109.1822392798)"><path d="m292.50354 639.16906c-.0101-.005-.00066-.001-.008-.005a.33047442.3304744 0 0 1 -.018-.009c-.00016-.00008.00082.00058.00066.0005l.0255.013z" fill="#808080"/><path d="m296.06177 644.91848-4.60032.00033s.94299-2.19053 2.3016-4.10613c.00033 0 .00074.00024.001.00033.00033.00024.00099.00049.001.00096.00033.00024.001.00074.002.00096.00033.00024.00083.00049.001.00049 1.40194 2.02058 2.29311 4.10308 2.29311 4.10308zm-.52867-.33279c-.22976-.50566-.79509-1.67589-1.76973-3.15875-.9522 1.42974-1.53792 2.64338-1.77261 3.15891z" fill="url(#e)"/><path d="m-644.9151-289.54462h.709402v.709648h-.709402z" fill="url(#f)" transform="matrix(0 -1 -1 0 0 0)"/><path d="m289.07042 639.22364v4.50675h.23667v-4.50675z" fill="url(#g)"/><path d="m-644.9176-290.73038h.711948v.712276h-.711948z" fill="url(#h)" transform="matrix(0 -1 -1 0 0 0)"/><path d="m290.25641 639.22626v4.50675h.23929v-4.50675z" fill="url(#i)"/></g></svg>

<?xml version="1.0" encoding="UTF-8" standalone="no"?>
<svg
   xmlns:dc="http://purl.org/dc/elements/1.1/"
   xmlns:cc="http://creativecommons.org/ns#"
   xmlns:rdf="http://www.w3.org/1999/02/22-rdf-syntax-ns#"
   xmlns:svg="http://www.w3.org/2000/svg"
   xmlns="http://www.w3.org/2000/svg"
   xmlns:xlink="http://www.w3.org/1999/xlink"
   xmlns:sodipodi="http://sodipodi.sourceforge.net/DTD/sodipodi-0.dtd"
   xmlns:inkscape="http://www.inkscape.org/namespaces/inkscape"
   width="16"
   height="16"
   version="1.1"
   viewBox="0 0 4.233125 4.233125"
   id="svg65"
   sodipodi:docname="audio-x-scpls.svg"
   inkscape:version="0.92.4 (5da689c313, 2019-01-14)">
  <metadata
     id="metadata69">
    <rdf:RDF>
      <cc:Work
         rdf:about="">
        <dc:format>image/svg+xml</dc:format>
        <dc:type
           rdf:resource="http://purl.org/dc/dcmitype/StillImage" />
        <dc:title></dc:title>
      </cc:Work>
    </rdf:RDF>
  </metadata>
  <sodipodi:namedview
     pagecolor="#ffffff"
     bordercolor="#666666"
     borderopacity="1"
     objecttolerance="10"
     gridtolerance="10"
     guidetolerance="10"
     inkscape:pageopacity="0"
     inkscape:pageshadow="2"
     inkscape:window-width="1920"
     inkscape:window-height="1016"
     id="namedview67"
     showgrid="false"
     inkscape:zoom="52.4375"
     inkscape:cx="8"
     inkscape:cy="8"
     inkscape:window-x="0"
     inkscape:window-y="27"
     inkscape:window-maximized="1"
     inkscape:current-layer="svg65" />
  <defs
     id="defs29">
    <linearGradient
       id="linearGradient1033"
       x1="11.996"
       x2="62"
       y1="32"
       y2="32"
       gradientTransform="matrix(0,-0.08211623,-0.08214872,0,296.39037,645.90388)"
       gradientUnits="userSpaceOnUse"
       xlink:href="#linearGradient4290-7" />
    <linearGradient
       id="linearGradient4290-7">
      <stop
         style="stop-color:#e72662"
         offset="0"
         id="stop3" />
      <stop
         style="stop-color:#ec3c50"
         offset=".483"
         id="stop5" />
      <stop
         style="stop-color:#ff7b66"
         offset="1"
         id="stop7" />
    </linearGradient>
    <linearGradient
       id="linearGradient1134"
       x1="-429.362"
       x2="-421.362"
       y1="-349.96799"
       y2="-349.96799"
       gradientTransform="matrix(0.08867049,0,0,0.08867049,-606.8441,-258.15833)"
       gradientUnits="userSpaceOnUse"
       xlink:href="#linearGradient4290-7" />
    <linearGradient
       id="linearGradient1136"
       x1="347.96701"
       x2="351.96701"
       y1="385.36099"
       y2="385.36099"
       gradientTransform="matrix(0.05916724,0,0,0.08047766,268.48218,610.46404)"
       gradientUnits="userSpaceOnUse"
       xlink:href="#linearGradient4290-7" />
    <linearGradient
       id="linearGradient1132"
       x1="-429.362"
       x2="-421.362"
       y1="-365.974"
       y2="-365.974"
       gradientTransform="matrix(0.0889982,0,0,0.0889982,-606.70602,-257.80366)"
       gradientUnits="userSpaceOnUse"
       xlink:href="#linearGradient4290-7" />
    <linearGradient
       id="linearGradient1138"
       x1="363.97501"
       x2="367.97501"
       y1="385.36099"
       y2="385.36099"
       gradientTransform="matrix(0.05982293,0,0,0.08047767,268.48237,610.46666)"
       gradientUnits="userSpaceOnUse"
       xlink:href="#linearGradient4290-7" />
    <linearGradient
       id="linearGradient4226"
       x1="529.65503"
       x2="-35.310001"
       y1="401.58401"
       y2="119.093"
       gradientTransform="matrix(0,-0.11988932,0.11988589,0,0.36278,292.5483)"
       gradientUnits="userSpaceOnUse">
      <stop
         style="stop-color:#f2f2f2"
         offset="0"
         id="stop14" />
      <stop
         style="stop-color:#f9f9f9"
         offset="1"
         id="stop16" />
    </linearGradient>
    <linearGradient
       id="linearGradient4358"
       x1="88"
       x2="488"
       y1="88"
       y2="488"
       gradientUnits="userSpaceOnUse">
      <stop
         style="stop-color:#000000;stop-opacity:.58823532"
         offset="0"
         id="stop19" />
      <stop
         style="stop-color:#000000;stop-opacity:0"
         offset=".88"
         id="stop21" />
      <stop
         style="stop-color:#000000"
         offset="1"
         id="stop23" />
    </linearGradient>
    <filter
       id="filter4346"
       width="1.026"
       height="1.022"
       x="-0.0099999998"
       y="-0.0099999998"
       style="color-interpolation-filters:sRGB">
      <feGaussianBlur
         stdDeviation="2.12"
         id="feGaussianBlur26" />
    </filter>
    <linearGradient
       inkscape:collect="always"
       xlink:href="#linearGradient927"
       id="linearGradient993"
       x1="328"
       y1="237"
       x2="328"
       y2="251"
       gradientUnits="userSpaceOnUse" />
    <linearGradient
       inkscape:collect="always"
       id="linearGradient927">
      <stop
         style="stop-color:#ffffff;stop-opacity:1;"
         offset="0"
         id="stop923" />
      <stop
         id="stop933"
         offset="0.125"
         style="stop-color:#ffffff;stop-opacity:0.09803922" />
      <stop
         id="stop931"
         offset="0.92500001"
         style="stop-color:#ffffff;stop-opacity:0.09803922" />
      <stop
         style="stop-color:#ffffff;stop-opacity:0.49803922"
         offset="1"
         id="stop925" />
    </linearGradient>
    <clipPath
       clipPathUnits="userSpaceOnUse"
       id="clipPath983">
      <path
         sodipodi:nodetypes="scccssscsss"
         inkscape:connector-curvature="0"
         id="path985"
         d="m 325.09646,237 c -2.80769,0 -3.10979,0.28839 -3.09603,3.10176 V 244 v 3.89824 c -0.0138,2.81337 0.28834,3.10176 3.09603,3.10176 h 5.8075 C 333.71166,251 334,250.71165 334,247.89824 V 244 240.10176 C 334,237.28836 333.71165,237 330.90396,237 Z"
         style="color:#000000;display:inline;overflow:visible;visibility:visible;opacity:1;fill:#46a926;fill-opacity:1;fill-rule:nonzero;stroke:none;stroke-width:2;stroke-miterlimit:4;stroke-dasharray:none;stroke-opacity:1;marker:none;enable-background:accumulate" />
    </clipPath>
    <linearGradient
       inkscape:collect="always"
       xlink:href="#linearGradient4338"
       id="linearGradient920"
       gradientUnits="userSpaceOnUse"
       gradientTransform="matrix(0,-0.00953618,0.00953591,0,-0.94298459,4.47364)"
       x1="459.03448"
       y1="419.23337"
       x2="35.310345"
       y2="207.36522" />
    <linearGradient
       inkscape:collect="always"
       id="linearGradient4338">
      <stop
         style="stop-color:#f2f2f2;stop-opacity:1"
         offset="0"
         id="stop4340" />
      <stop
         style="stop-color:#f9f9f9;stop-opacity:1"
         offset="1"
         id="stop4342" />
    </linearGradient>
    <linearGradient
       id="linearGradient1033-3"
       x1="11.996"
       x2="62"
       y1="32"
       y2="32"
       gradientTransform="matrix(0,-0.08211623,-0.08214872,0,296.39037,645.90388)"
       gradientUnits="userSpaceOnUse"
       xlink:href="#linearGradient4290-7" />
    <linearGradient
       id="linearGradient1134-3"
       x1="-429.362"
       x2="-421.362"
       y1="-349.96799"
       y2="-349.96799"
       gradientTransform="matrix(0.08867049,0,0,0.08867049,-606.8441,-258.15833)"
       gradientUnits="userSpaceOnUse"
       xlink:href="#linearGradient4290-7" />
    <linearGradient
       id="linearGradient1136-5"
       x1="347.96701"
       x2="351.96701"
       y1="385.36099"
       y2="385.36099"
       gradientTransform="matrix(0.05916724,0,0,0.08047766,268.48218,610.46404)"
       gradientUnits="userSpaceOnUse"
       xlink:href="#linearGradient4290-7" />
    <linearGradient
       id="linearGradient1132-6"
       x1="-429.362"
       x2="-421.362"
       y1="-365.974"
       y2="-365.974"
       gradientTransform="matrix(0.0889982,0,0,0.0889982,-606.70602,-257.80366)"
       gradientUnits="userSpaceOnUse"
       xlink:href="#linearGradient4290-7" />
    <linearGradient
       id="linearGradient1138-2"
       x1="363.97501"
       x2="367.97501"
       y1="385.36099"
       y2="385.36099"
       gradientTransform="matrix(0.05982293,0,0,0.08047767,268.48237,610.46666)"
       gradientUnits="userSpaceOnUse"
       xlink:href="#linearGradient4290-7" />
  </defs>
  <path
     style="color:#000000;font-style:normal;font-variant:normal;font-weight:normal;font-stretch:normal;font-size:medium;line-height:normal;font-family:sans-serif;font-variant-ligatures:normal;font-variant-position:normal;font-variant-caps:normal;font-variant-numeric:normal;font-variant-alternates:normal;font-feature-settings:normal;text-indent:0;text-align:start;text-decoration:none;text-decoration-line:none;text-decoration-style:solid;text-decoration-color:#000000;letter-spacing:normal;word-spacing:normal;text-transform:none;writing-mode:lr-tb;direction:ltr;text-orientation:mixed;dominant-baseline:auto;baseline-shift:baseline;text-anchor:start;white-space:normal;shape-padding:0;clip-rule:nonzero;display:inline;overflow:visible;visibility:visible;opacity:0.1;isolation:auto;mix-blend-mode:normal;color-interpolation:sRGB;color-interpolation-filters:linearRGB;solid-color:#000000;solid-opacity:1;vector-effect:none;fill:#000000;fill-opacity:1;fill-rule:nonzero;stroke:none;stroke-width:0.52914065;stroke-linecap:butt;stroke-linejoin:miter;stroke-miterlimit:4;stroke-dasharray:none;stroke-dashoffset:0;stroke-opacity:1;marker:none;color-rendering:auto;image-rendering:auto;shape-rendering:auto;text-rendering:auto;enable-background:accumulate"
     d="m 1.3483189,0.264567 c -0.1902367,0 -0.3444309,0.0037 -0.48573259,0.02739 -0.1413044,0.02373 -0.2826405,0.0731 -0.3906566,0.180857 -0.1080135,0.10776 -0.1578347,0.249551 -0.1813735,0.39117 -0.023547,0.141622 -0.026772,0.296446 -0.025849,0.487286 v 0.765291 1.031411 c -7.938e-4,0.190004 0.00238,0.344563 0.025849,0.485735 0.023547,0.14162 0.073357,0.283411 0.1813735,0.39117 0.1080161,0.107762 0.2493522,0.157139 0.3906566,0.180858 0.14130169,0.02373 0.29549589,0.02739 0.48573259,0.02739 H 2.885102 c 0.1902367,0 0.3440949,-0.0036 0.4852167,-0.02739 C 3.5114432,4.181975 3.6527952,4.132205 3.7604568,4.024361 3.8681184,3.916517 3.9176221,3.774948 3.9413144,3.633707 3.9650094,3.492464 3.9687024,3.338577 3.9687024,3.147972 V 2.116561 1.349719 c 0,-0.190604 -0.0037,-0.344491 -0.027388,-0.485735 C 3.9176354,0.722743 3.8681184,0.581174 3.7604565,0.47333 3.6527949,0.365486 3.5114429,0.315705 3.3703184,0.291957 3.2291966,0.268207 3.0753384,0.264567 2.8851017,0.264567 Z"
     id="path997"
     inkscape:connector-curvature="0"
     sodipodi:nodetypes="scscccccccsscscscscscss" />
  <path
     sodipodi:nodetypes="scccssscsss"
     inkscape:connector-curvature="0"
     id="path928"
     d="m 1.34852,0.264567 c -0.74283149,0 -0.82275819,0.0763 -0.81911769,0.820634 V 2.11656 3.147918 c -0.00365,0.744334 0.076286,0.820634 0.81911769,0.820634 h 1.5364921 c 0.7428341,0 0.8191203,-0.07629 0.8191203,-0.820634 V 2.11656 1.085201 c 0,-0.744342 -0.076289,-0.820634 -0.8191203,-0.820634 z"
     style="color:#000000;display:inline;overflow:visible;visibility:visible;opacity:0.2;fill:none;fill-opacity:1;fill-rule:nonzero;stroke:#000000;stroke-width:0.52914065;stroke-miterlimit:4;stroke-dasharray:none;stroke-opacity:1;marker:none;enable-background:accumulate" />
  <path
     style="color:#000000;display:inline;overflow:visible;visibility:visible;fill:url(#linearGradient920);fill-opacity:1;fill-rule:nonzero;stroke:none;stroke-width:0.26457033;marker:none;enable-background:accumulate"
     d="m 1.34852,0.264567 c -0.74283149,0 -0.82275819,0.0763 -0.81911769,0.820634 V 2.11656 3.147918 c -0.00365,0.744334 0.076286,0.820634 0.81911769,0.820634 h 1.5364921 c 0.7428341,0 0.8191203,-0.07629 0.8191203,-0.820634 V 2.11656 1.085201 c 0,-0.744342 -0.076289,-0.820634 -0.8191203,-0.820634 z"
     id="path918"
     inkscape:connector-curvature="0"
     sodipodi:nodetypes="scccssscsss" />
  <path
     style="color:#000000;display:inline;overflow:visible;visibility:visible;opacity:0.2;fill:#ffffff;fill-opacity:1;fill-rule:nonzero;stroke:none;stroke-width:0.26457033;marker:none;enable-background:accumulate"
     d="M 2.1167105,0.264567 V 3.968552 H 2.885102 c 0.7428341,0 0.8190304,-0.07624 0.8190304,-0.820581 V 2.11656 1.085148 c 0,-0.744342 -0.076199,-0.820581 -0.8190304,-0.820581 z"
     id="path1009"
     inkscape:connector-curvature="0" />
  <path
     style="color:#000000;display:inline;overflow:visible;visibility:visible;opacity:0.2;fill:#ffffff;fill-opacity:1;fill-rule:nonzero;stroke:none;stroke-width:0.26457033;marker:none;enable-background:accumulate"
     d="m 0.52928861,2.11656 v 1.031411 c -0.00365,0.744334 0.076199,0.820581 0.81903029,0.820581 H 2.885102 c 0.7428341,0 0.8190304,-0.07624 0.8190304,-0.820581 V 2.11656 Z"
     id="path1016"
     inkscape:connector-curvature="0" />
  <path
     transform="matrix(0.26457031,0,0,0.26457031,-84.662352,-62.438597)"
     style="color:#000000;display:inline;overflow:visible;visibility:visible;opacity:0.4;fill:none;fill-opacity:1;fill-rule:nonzero;stroke:url(#linearGradient993);stroke-width:2;stroke-miterlimit:4;stroke-dasharray:none;stroke-opacity:1;marker:none;enable-background:accumulate"
     d="m 325.09646,237 c -2.80769,0 -3.10979,0.28839 -3.09603,3.10176 V 244 v 3.89824 c -0.0138,2.81337 0.28834,3.10176 3.09603,3.10176 h 5.8075 C 333.71166,251 334,250.71165 334,247.89824 V 244 240.10176 C 334,237.28836 333.71165,237 330.90396,237 Z"
     id="path937"
     inkscape:connector-curvature="0"
     sodipodi:nodetypes="scccssscsss"
     clip-path="url(#clipPath983)" />
  <g
     transform="translate(2.4219216,-291.14241)"
     id="g63">
    <g
       transform="matrix(0.36624599,0,0,0.36624599,42.080159,215.52417)"
       style="enable-background:new"
       id="g61">
      <g
         transform="matrix(0,-1,-1,0,373.50506,516.50504)"
         id="g59">
        <g
           transform="matrix(-0.9996045,0,0,1,587.69701,-763.80263)"
           id="g57">
          <g
             transform="matrix(-1,0,0,1,575.99999,611)"
             id="g55">
            <path
               d="m 292.50354,639.16906 c -0.0101,-0.005 -6.6e-4,-10e-4 -0.008,-0.005 a 0.33047442,0.3304744 0 0 1 -0.018,-0.009 c -1.6e-4,-8e-5 8.2e-4,5.8e-4 6.6e-4,5e-4 l 0.0255,0.013 z"
               style="fill:#808080;stroke-width:0.08211623"
               id="path43"
               inkscape:connector-curvature="0" />
            <path
               d="m 296.06177,644.91848 -4.60032,3.3e-4 c 0,0 0.94299,-2.19053 2.3016,-4.10613 3.3e-4,0 7.4e-4,2.4e-4 10e-4,3.3e-4 3.3e-4,2.4e-4 9.9e-4,4.9e-4 10e-4,9.6e-4 3.3e-4,2.4e-4 0.001,7.4e-4 0.002,9.6e-4 3.3e-4,2.4e-4 8.3e-4,4.9e-4 0.001,4.9e-4 1.40194,2.02058 2.29311,4.10308 2.29311,4.10308 z m -0.52867,-0.33279 c -0.22976,-0.50566 -0.79509,-1.67589 -1.76973,-3.15875 -0.9522,1.42974 -1.53792,2.64338 -1.77261,3.15891 z"
               style="fill:url(#linearGradient1033-3);stroke-width:0.08211623"
               id="path45"
               inkscape:connector-curvature="0" />
            <rect
               width="0.70940208"
               height="0.70964849"
               x="-644.9151"
               y="-289.54462"
               transform="matrix(0,-1,-1,0,0,0)"
               style="fill:url(#linearGradient1134-3);stroke-width:0.08211623"
               id="rect47" />
            <path
               d="m 289.07042,639.22364 v 4.50675 h 0.23667 v -4.50675 z"
               style="fill:url(#linearGradient1136-5);stroke-width:0.08211623"
               id="path49"
               inkscape:connector-curvature="0" />
            <rect
               width="0.71194774"
               height="0.71227616"
               x="-644.9176"
               y="-290.73038"
               transform="matrix(0,-1,-1,0,0,0)"
               style="fill:url(#linearGradient1132-6);stroke-width:0.08211623"
               id="rect51" />
            <path
               d="m 290.25641,639.22626 v 4.50675 h 0.23929 v -4.50675 z"
               style="fill:url(#linearGradient1138-2);stroke-width:0.08211623"
               id="path53"
               inkscape:connector-curvature="0" />
          </g>
        </g>
      </g>
    </g>
  </g>
</svg>
